src/lib/packages/icons/src/assets/line/fingerprint-viewfinder.svg

<svg width="24" height="24" viewBox="0 0 24 24" fill="none" xmlns="http://www.w3.org/2000/svg">
<path d="M21 8.75C20.586 8.75 20.25 8.414 20.25 8V4.5C20.25 3.911 20.089 3.75 19.5 3.75H16C15.586 3.75 15.25 3.414 15.25 3C15.25 2.586 15.586 2.25 16 2.25H19.5C20.909 2.25 21.75 3.091 21.75 4.5V8C21.75 8.414 21.414 8.75 21 8.75ZM3 8.75C2.586 8.75 2.25 8.414 2.25 8V4.5C2.25 3.091 3.091 2.25 4.5 2.25H8C8.414 2.25 8.75 2.586 8.75 3C8.75 3.414 8.414 3.75 8 3.75H4.5C3.911 3.75 3.75 3.911 3.75 4.5V8C3.75 8.414 3.414 8.75 3 8.75ZM8 21.75H4.5C3.091 21.75 2.25 20.909 2.25 19.5V16C2.25 15.586 2.586 15.25 3 15.25C3.414 15.25 3.75 15.586 3.75 16V19.5C3.75 20.089 3.911 20.25 4.5 20.25H8C8.414 20.25 8.75 20.586 8.75 21C8.75 21.414 8.414 21.75 8 21.75ZM19.5 21.75H16C15.586 21.75 15.25 21.414 15.25 21C15.25 20.586 15.586 20.25 16 20.25H19.5C20.089 20.25 20.25 20.089 20.25 19.5V16C20.25 15.586 20.586 15.25 21 15.25C21.414 15.25 21.75 15.586 21.75 16V19.5C21.75 20.909 20.909 21.75 19.5 21.75ZM16.9199 18.24C17.6639 17.177 17.75 15.9 17.75 15.032V10.864C17.75 9.68401 17.3919 8.56092 16.7119 7.61792C16.4709 7.28392 16.003 7.205 15.665 7.448C15.329 7.69 15.2531 8.15812 15.4951 8.49512C15.9891 9.18112 16.25 10 16.25 10.864V15.032C16.25 16.104 16.0769 16.8281 15.6909 17.3811C15.4539 17.7201 15.536 18.188 15.876 18.425C16.007 18.516 16.1559 18.5601 16.3049 18.5601C16.5419 18.5601 16.7739 18.448 16.9199 18.24ZM7.75 13.9451V10.863C7.75 8.45104 9.87295 6.47597 12.2939 6.77197C12.6919 6.81897 13.0789 6.52894 13.1279 6.11694C13.1779 5.70594 12.8851 5.33196 12.4741 5.28296C12.2701 5.25896 12.068 5.25 11.864 5.25C8.76901 5.25 6.25098 7.76804 6.25098 10.863V13.9451C6.25098 14.3591 6.58698 14.6951 7.00098 14.6951C7.41498 14.6951 7.75 14.3591 7.75 13.9451ZM14.5811 11.1521C14.5811 9.7081 13.4059 8.53394 11.9629 8.53394C10.5199 8.53394 9.34497 9.7081 9.34497 11.1521V13.95C9.34497 14.33 9.16011 14.9899 8.86011 15.3799C8.61011 15.7099 8.67 16.1799 9 16.4299C9.13 16.5399 9.28995 16.5901 9.44995 16.5901C9.67995 16.5901 9.90005 16.49 10.05 16.29C10.6 15.58 10.845 14.58 10.845 13.95V11.1521C10.845 10.5351 11.3469 10.0339 11.9629 10.0339C12.5789 10.0339 13.0811 10.5351 13.0811 11.1521L13.0801 14.51C13.0801 15.56 12.95 16.6399 12.03 17.4299C11.72 17.6999 11.68 18.17 11.95 18.49C12.1 18.66 12.31 18.75 12.52 18.75C12.69 18.75 12.87 18.6901 13.01 18.5701C14.4 17.3801 14.5801 15.77 14.5801 14.51L14.5811 11.1521Z" fill="currentColor"/>
</svg>

<svg xmlns="http://www.w3.org/2000/svg" width="24" height="24" fill="none"><path fill="currentColor" d="M21 8.75a.75.75 0 0 1-.75-.75V4.5c0-.589-.161-.75-.75-.75H16a.75.75 0 0 1 0-1.5h3.5c1.409 0 2.25.841 2.25 2.25V8a.75.75 0 0 1-.75.75Zm-18 0A.75.75 0 0 1 2.25 8V4.5c0-1.409.841-2.25 2.25-2.25H8a.75.75 0 0 1 0 1.5H4.5c-.589 0-.75.161-.75.75V8a.75.75 0 0 1-.75.75Zm5 13H4.5c-1.409 0-2.25-.841-2.25-2.25V16a.75.75 0 0 1 1.5 0v3.5c0 .589.161.75.75.75H8a.75.75 0 0 1 0 1.5Zm11.5 0H16a.75.75 0 0 1 0-1.5h3.5c.589 0 .75-.161.75-.75V16a.75.75 0 0 1 1.5 0v3.5c0 1.409-.841 2.25-2.25 2.25Zm-2.58-3.51c.744-1.063.83-2.34.83-3.208v-4.168c0-1.18-.358-2.303-1.038-3.246a.75.75 0 0 0-1.217.877c.494.686.755 1.505.755 2.369v4.168c0 1.072-.173 1.796-.56 2.35a.75.75 0 1 0 1.23.858Zm-9.17-4.295v-3.082c0-2.412 2.123-4.387 4.544-4.091a.758.758 0 0 0 .834-.655.749.749 0 0 0-.654-.834 5.62 5.62 0 0 0-6.223 5.58v3.082a.75.75 0 0 0 1.499 0Zm6.831-2.793a2.621 2.621 0 0 0-2.618-2.618 2.621 2.621 0 0 0-2.618 2.618v2.798c0 .38-.185 1.04-.485 1.43-.25.33-.19.8.14 1.05a.739.739 0 0 0 1.05-.14c.55-.71.795-1.71.795-2.34v-2.798a1.12 1.12 0 0 1 1.118-1.118 1.12 1.12 0 0 1 1.118 1.118v3.358c0 1.05-.131 2.13-1.051 2.92-.31.27-.35.74-.08 1.06.15.17.36.26.57.26.17 0 .35-.06.49-.18 1.39-1.19 1.57-2.8 1.57-4.06l.001-3.358Z"/></svg>
